icons/svg/tor.svg

﻿<?xml version="1.0" encoding="utf-8"?>
<!DOCTYPE svg PUBLIC "-//W3C//DTD SVG 1.1//EN" "http://www.w3.org/Graphics/SVG/1.1/DTD/svg11.dtd">
<svg xmlns="http://www.w3.org/2000/svg" xmlns:xlink="http://www.w3.org/1999/xlink" version="1.1" baseProfile="full" width="24" height="24" viewBox="0 0 24.00 24.00" enable-background="new 0 0 24.00 24.00" xml:space="preserve">
	<path fill="#000000" fill-opacity="1" stroke-width="0.2" stroke-linejoin="round" d="M 12,14C 11,14 9,15 8.99999,16C 9,18 12,18 12,18L 12,17C 11.4477,17 11,16.5523 11,16C 11,15.4477 11.4477,15 12,15L 12,14 Z M 12,19C 12,19 7.99999,18.5 7.99999,16.5C 7.99999,13.5 11,12.75 12,12.75L 12,11.5C 11,11.5 7,13 7,16C 7,20 12,20 12,20L 12,19 Z M 10.0723,7.03144L 11.2606,7.56007C 11.6926,5.1152 12.8396,3.50943 12.8396,3.50943C 12.4146,4.52948 12.1332,5.37719 11.9469,6.05257C 13.1635,3.54747 15.6069,2 15.6069,2C 14.4252,3.18169 13.5647,4.45512 12.9664,5.52647C 14.5538,3.84729 16.739,2.75472 16.739,2.75471C 14.0534,4.47347 12.8357,7.20137 12.5374,7.96124L 13.0896,8.03774C 13.0896,8.55637 13.0912,9.04403 13.3428,9.42138C 14.0975,11.3082 18,11.4717 18,16C 18,20.5283 13.9717,22 11.8333,22C 9.69497,22 5,21.0314 5,16C 5,10.9686 9.94654,10.9308 10.827,8.91824C 10.9528,8.54088 10.0723,7.03145 10.0723,7.03144 Z "/>
</svg>

<svg xmlns="http://www.w3.org/2000/svg" version="1.1" baseProfile="full" width="24" height="24" viewBox="0 0 24.00 24.00" xml:space="preserve"><path fill="#000" fill-opacity="1" stroke-width=".2" stroke-linejoin="round" d="M12 14c-1 0-3 1-3 2 0 2 3 2 3 2v-1c-.552 0-1-.448-1-1s.448-1 1-1v-1zm0 5s-4-.5-4-2.5c0-3 3-3.75 4-3.75V11.5c-1 0-5 1.5-5 4.5 0 4 5 4 5 4v-1zM10.072 7.03l1.19.53c.43-2.445 1.578-4.05 1.578-4.05-.425 1.02-.707 1.867-.893 2.543C13.164 3.547 15.607 2 15.607 2c-1.182 1.182-2.042 2.455-2.64 3.526 1.587-1.68 3.772-2.77 3.772-2.77-2.687 1.717-3.904 4.445-4.203 5.205l.553.078c0 .518 0 1.006.253 1.383C14.098 11.31 18 11.473 18 16c0 4.528-4.028 6-6.167 6C9.695 22 5 21.03 5 16s4.947-5.07 5.827-7.082c.126-.377-.755-1.887-.755-1.887z"/></svg>
